!!!COM: Victor Masse/
!!!CNT: Francais
!!!TXO: Francais
!!!OTL: Ramez, Dormez, Aimez!
!!!LYR: Victor Hugo
!!!OPR: Premie\res Me/lodies
!!!ONM: No. 2
!!!ENC: Jacob Pegg
!!!YOR: Romantic French Song 1830-1870 -David Tunley, ed.,
!!!YOR: New York: Garland Publishing, Inc., 1995, Vol. 4
!!!ODT: 1868/
!!NB: Vocal melody and text only encoded.
!!NB: First instance of melodic material only encoded.
**kern	**silbe
*clef G2	*
*k[f#c#]	*
*M6/8	*
=3	=3
4r	.
8r	.
4r	.
{(8b	{Com-
=4	=4
[4.e)	-ment,
8e]	|
8f#	dis-
8e	-aient~
=5	=5
4d	~ils,
8c#	A-
8d	-vec
8f#	nos
8a	na-
=6	=6
8g#	-cel-
8f##}	-les,}
{8g#	{Fuir
8ee	les
8dd	al-
8b	-gua-
=7	=7
[2.cc#	-zils?
=8	=8
8cc#]}	|}
{(8b	{Fuir
8a)	|
(16g	les
32a	|
32g	|
8f#)	al-
8e	-gua-
=9	=9
[2.a	-zils?
=10	=10
2.a_	|
=11	=11
4.a_	|
8a]}	|}
8r	.
{8a	{Ra-
=12	=12
[4.b-	-mez,
8b-]	|
8ccn	dis-
8dd	-aient~
=13	=13
4.ccn	~el-
4b-	-les,
8a	ra-
=14	=14
(4.g#	mez,
[4.dd)	|
=15	=15
4.dd_	|
4dd]}	|}
{8g#	{Ra-
=16	=16
(8b	mez,
8a	|
8gn)	|
(16f#	di-
32gn	|
32f#	|
8e)	|
8d	-saient~
=17	=17
(8e	~el-
[4a)	|
(4.a]	|
=18	=18
4d)}	-les!}
8r	.
4r	.
8r	.
!!two identical strophes follow. 
*-	*-
